X:1
T:The Lord Will Provide
T:The Lord Will Provide
T:Edmund S. Lorenz, c.1878
T:Mrs. A. W. Cook
T:PUBLIC DOMAIN
C:Edmund S. Lorenz, c.1878
Z:Mrs. A. W. Cook
Z:PUBLIC DOMAIN
%%score 1 ( 2 3 )
L:1/8
Q:1/4=70
M:2/4
K:A
V:1 treble nm="Treble"
V:2 bass nm="Bass"
V:3 bass 
V:1
"^Melody in second tenor"!8vb(! [Ec] | [ce]2 [Ac]3/2 [Ec]/ | [Fd] [Bd]2 [Ad] | %3
w: 1.~In|some way or|oth- er The|
w: 2.~At|some time or|oth- er The|
w: 3.~March|on, then, right|bold- ly, The|
 [Gd]2 [Fd]3/2 [Gd]/ | [Ac]3 [Ec] | [ce]2 [df]3/2 [ce]/ | [ce] [Bd]2 | [Ed] | [Bd]2 [ce]3/2 [Bd]/ | %9
w: Lord will pro-|vide; It|may not be|my way,|It|may not be|
w: Lord will pro-|vide; It|may not be|my time,|It|may not be|
w: sea shall di-|vide; The|path- way made|glo- rious,|With|shout- ings vic-|
 [Bd] [Ac]2 [Ac] | [Af]2 [Ge]3/2 [Fd]/ | [Fd] [Ec]2 [Ae] | [Bd]2 [ce]3/2 [Bd]/ | [Ac]3!8vb)! |] %14
w: thy way, And|yet in His|own way, The|Lord will pro-|vide.|
w: thy time, And|yet in His|own time, The|Lord will pro-|vide.|
w: tor- ious, We’ll|join in the|cho- rus: “The|Lord will pro-|vide.”|
V:2
 [A,,A,] | [A,,A,]2 [A,,A,]3/2 [A,,A,]/ | [D,A,] [D,F,]2 [D,F,] | E,2 E,3/2 E,/ | %4
 [A,,E,]3 [A,,A,] | [A,,A,]2 [A,,A,]3/2 [A,,A,]/ | [E,A,] [E,G,]2 | [E,G,] | %8
 [E,G,]2 E,3/2 [E,G,]/ | [E,G,] [F,A,]2 [E,=G,] | [D,F,]2 [D,G,]3/2 [D,A,]/ | %11
 [A,,A,] [A,,A,]2 [C,A,] | [E,G,]2 [E,G,]3/2 E,/ | [A,,E,]3 |] %14
V:3
 x | x4 | x4 | E,2 E,3/2 E,/ | x4 | x4 | x3 | x | z2 E,3/2 z/ | x4 | x4 | x4 | z2 z3/2 E,/ | x3 |] %14

